X:169
T:Parkes of Kilburnie. Ru2.169, The
%%VWML:RutherfordVol2-2249-p85-0
F:http://www.vwml.org/record/RutherfordVol2/2249/p85
Z:vmp.Ruairidh Greig 2015 www.village-music-project.org.uk
M:C|
L:1/8
N:NB F crotchet in MS
Q:1/4=100
K:F
F|(A/B/c) (cf) (a/g/f/e/) fd|cAdA BGGB|(A/B/c) (cf) (a/g/f/e/ f)""d|cABG F/F/F"NB"F:|
|:c|(A/B/c) (Fc) dA fd|"tr"(cA) (ae) fddf|(A/B/c) (Fc) dAfd|cABG F/F/F F:|
W:The first Man turns his Partner with his right Hand
W:& cast off one Cu. .| Turn with your Left Hands
W:the Man fall in between the 3d. Cu. & ye Wo. between
W:the 2d. Cu. :| Foot it three at Top & Bottom &
W:turn .|. Lead up to the Top foot it & Cast off :|
T:Auld Carle come 0'er the Croft. Ru2.170
B:RUTHERFORD Complete Collection of 200 Country Dances Vol.2; 1759.
Z:vmp.Ruairidh Greig 2015 www.village-music-project.org.uk
M:C|
L:1/8
Q:1/4=100
K:D
AB Ae cA (c/d/e)|g2d2(B/c/d) BG|A>B Ae cA c/d/e|ae2d ce (d/c/B/A/):|
aA2B cdef|gG2d (B/c/d) BG|A2 "tr"(^g>f/g//)a2ef/^g/|a^g/f/ ed ce (d/c/B/A/):|
W:The first Cu. cast off one Cu. & right Hands across
W:with the 3d. Cu. .| Cast up again & Left Hands across
W:with the 2d. Cu. :| Cross over two Cu. .|. Lead up to
W:the Top foot it & cast off :||: Foot it Corners &
W:turn .||. Lead outsides & turn :|
